X:496
T:Lord Lyndoch's Welcome
R:Strathspey
B:The Athole Collection
M:C
L:1/8
K:A
E|A<A c>B c>EC>E|A<A A>B c<e e2|f<ae<a d<ac<a|B>AB>c A<FF:|
|:f|e<c c>e f>ed>c|e>ca>c f2 f>g|a/g/f/e/ f>g a>fe>c|B>AB>c A<FF:|

